flaticon/romance-lifestyle/chocolate-box.svg

<svg xmlns="http://www.w3.org/2000/svg" width="32" height="32" viewBox="0 0 24 24">
    <path d="M 22.351562 3.335938 C 20.835938 1.621094 19 0.742188 17.121094 0.742188 C 15.007812 0.742188 13.089844 2.019531 11.972656 4.136719 C 10.894531 2.019531 8.976562 0.742188 6.902344 0.742188 C 5.027344 0.742188 3.269531 1.621094 1.671875 3.335938 C -0.164062 5.375 -1.203125 9.925781 2.429688 13.355469 C 4.109375 14.914062 11.652344 22.859375 11.734375 22.9375 L 12.011719 23.257812 L 12.332031 22.9375 C 12.410156 22.859375 19.996094 14.953125 21.632812 13.355469 C 25.1875 9.925781 24.148438 5.332031 22.351562 3.335938 Z M 20.996094 12.839844 C 19.515625 14.234375 13.371094 20.664062 11.972656 22.140625 C 10.574219 20.621094 4.46875 14.234375 2.949219 12.796875 C -0.28125 9.722656 0.636719 5.691406 2.273438 3.894531 C 3.707031 2.339844 5.265625 1.539062 6.902344 1.539062 C 8.898438 1.539062 10.734375 2.976562 11.613281 5.253906 L 11.972656 6.210938 L 12.371094 5.253906 C 13.289062 2.976562 15.085938 1.539062 17.121094 1.539062 C 18.796875 1.539062 20.355469 2.339844 21.671875 3.9375 C 23.269531 5.691406 24.1875 9.765625 20.996094 12.839844 Z M 20.996094 12.839844"/>
    <path d="M 11.972656 7.128906 C 10.414062 7.128906 9.179688 8.367188 9.179688 9.925781 C 9.179688 11.480469 10.414062 12.71875 11.972656 12.71875 C 13.527344 12.71875 14.765625 11.480469 14.765625 9.925781 C 14.765625 8.367188 13.527344 7.128906 11.972656 7.128906 Z M 11.972656 11.921875 C 10.855469 11.921875 9.976562 11.042969 9.976562 9.925781 C 9.976562 8.804688 10.855469 7.929688 11.972656 7.929688 C 13.089844 7.929688 13.96875 8.804688 13.96875 9.925781 C 13.96875 11.042969 13.089844 11.921875 11.972656 11.921875 Z M 11.972656 11.921875"/>
    <path d="M18.199219 6.53125C17.839844 6.292969 17.441406 6.25 17.042969 6.410156L13.488281 7.847656C13.371094 7.886719 13.25 8.007812 13.25 8.128906 13.25 8.246094 13.289062 8.40625 13.371094 8.488281 13.769531 8.886719 13.96875 9.367188 13.96875 9.925781 13.96875 10.484375 13.769531 11.003906 13.371094 11.359375 13.25 11.441406 13.210938 11.601562 13.25 11.71875 13.289062 11.839844 13.371094 11.960938 13.488281 12L17.042969 13.4375C17.203125 13.476562 17.363281 13.515625 17.519531 13.515625 17.800781 13.515625 18.039062 13.4375 18.199219 13.316406 18.558594 13.078125 18.757812 12.679688 18.757812 12.28125L18.757812 7.570312C18.757812 7.128906 18.558594 6.769531 18.199219 6.53125zM17.960938 12.320312C17.960938 12.480469 17.878906 12.597656 17.761719 12.679688 17.640625 12.757812 17.480469 12.757812 17.363281 12.71875L14.328125 11.480469C14.605469 11.003906 14.765625 10.441406 14.765625 9.925781 14.765625 9.40625 14.605469 8.847656 14.328125 8.40625L17.363281 7.167969C17.480469 7.128906 17.640625 7.128906 17.761719 7.210938 17.878906 7.289062 17.960938 7.410156 17.960938 7.570312zM10.015625 9.925781C10.015625 9.367188 10.214844 8.847656 10.613281 8.488281 10.734375 8.40625 10.773438 8.246094 10.734375 8.128906 10.695312 8.007812 10.613281 7.886719 10.496094 7.847656L6.941406 6.410156C6.542969 6.25 6.144531 6.292969 5.785156 6.53125 5.425781 6.769531 5.226562 7.167969 5.226562 7.570312L5.226562 12.28125C5.226562 12.71875 5.425781 13.078125 5.785156 13.316406 5.984375 13.4375 6.222656 13.515625 6.464844 13.515625 6.582031 13.515625 6.742188 13.476562 6.941406 13.4375L10.496094 12C10.613281 11.960938 10.695312 11.839844 10.734375 11.71875 10.734375 11.601562 10.695312 11.441406 10.613281 11.363281 10.214844 10.960938 10.015625 10.484375 10.015625 9.925781zM6.625 12.679688C6.503906 12.71875 6.34375 12.71875 6.222656 12.640625 6.105469 12.558594 6.023438 12.4375 6.023438 12.28125L6.023438 7.570312C6.023438 7.410156 6.105469 7.289062 6.222656 7.210938 6.304688 7.167969 6.382812 7.128906 6.464844 7.128906 6.503906 7.128906 6.542969 7.167969 6.582031 7.167969L9.617188 8.40625C9.335938 8.847656 9.179688 9.363281 9.179688 9.925781 9.179688 10.484375 9.378906 11.003906 9.65625 11.441406zM6.625 12.679688"/>
    <path d="M13.769531 11.359375C13.609375 11.320312 13.449219 11.320312 13.328125 11.441406 12.570312 12.121094 11.375 12.121094 10.65625 11.441406 10.535156 11.320312 10.375 11.28125 10.214844 11.359375 10.054688 11.402344 9.976562 11.5625 9.976562 11.71875L9.976562 15.914062C9.976562 16.070312 10.097656 16.230469 10.253906 16.3125 10.375 16.351562 10.574219 16.3125 10.65625 16.191406L11.972656 14.875 13.289062 16.191406C13.371094 16.269531 13.449219 16.3125 13.570312 16.3125 13.648438 16.3125 13.6875 16.3125 13.769531 16.269531 13.929688 16.230469 14.007812 16.070312 14.007812 15.914062L14.007812 11.71875C14.007812 11.5625 13.929688 11.402344 13.769531 11.359375zM13.171875 14.953125L12.25 14.035156C12.171875 13.957031 12.09375 13.917969 11.972656 13.917969 11.890625 13.917969 11.773438 13.957031 11.691406 14.035156L10.773438 14.953125 10.773438 12.4375C11.535156 12.796875 12.410156 12.796875 13.171875 12.4375zM12.371094 7.210938L3.867188 1.820312C3.707031 1.742188 3.550781 1.742188 3.429688 1.820312 2.789062 2.21875 2.191406 2.738281 1.632812 3.335938 1.152344 3.894531.714844 4.613281.433594 5.414062.355469 5.613281.433594 5.773438.59375 5.890625L5.386719 8.925781C5.425781 8.964844 5.503906 9.007812 5.585938 9.007812 5.664062 9.007812 5.746094 9.007812 5.785156 8.964844 5.90625 8.886719 5.984375 8.765625 5.984375 8.605469L5.984375 7.570312C5.984375 7.410156 6.0625 7.289062 6.183594 7.210938 6.304688 7.128906 6.464844 7.128906 6.582031 7.167969L10.136719 8.605469C10.296875 8.6875 10.457031 8.648438 10.574219 8.527344 10.933594 8.167969 11.453125 7.96875 11.972656 7.96875 12.011719 7.96875 12.09375 7.96875 12.132812 7.96875 12.292969 7.96875 12.492188 7.847656 12.53125 7.6875 12.609375 7.488281 12.53125 7.289062 12.371094 7.210938zM10.253906 7.769531L6.941406 6.449219C6.542969 6.292969 6.144531 6.332031 5.785156 6.570312 5.425781 6.808594 5.226562 7.210938 5.226562 7.609375L5.226562 7.886719 1.3125 5.414062C1.554688 4.8125 1.871094 4.296875 2.230469 3.894531 2.710938 3.378906 3.148438 2.976562 3.667969 2.617188L11.054688 7.289062C10.773438 7.410156 10.496094 7.570312 10.253906 7.769531zM10.253906 7.769531"/>
    <path d="M 21.511719 13.238281 C 21.472656 13.117188 21.394531 13.039062 21.3125 12.957031 L 18.558594 11.203125 C 18.4375 11.121094 18.28125 11.121094 18.160156 11.203125 C 18.039062 11.28125 17.960938 11.402344 17.960938 11.5625 L 17.960938 12.398438 C 17.921875 12.519531 17.839844 12.640625 17.722656 12.71875 C 17.679688 12.757812 17.519531 12.839844 17.363281 12.757812 L 14.367188 11.5625 L 14.007812 11.28125 C 13.847656 11.160156 13.609375 11.160156 13.488281 11.320312 C 13.410156 11.402344 13.371094 11.441406 13.328125 11.480469 C 13.25 11.519531 13.210938 11.640625 13.210938 11.761719 L 13.210938 13.835938 C 13.210938 13.957031 13.289062 14.074219 13.410156 14.15625 L 17.761719 16.910156 C 17.800781 16.949219 17.878906 16.988281 17.960938 16.988281 C 18.039062 16.988281 18.160156 16.949219 18.238281 16.910156 L 18.71875 16.429688 C 19.875 15.234375 20.875 14.234375 21.433594 13.558594 C 21.511719 13.476562 21.554688 13.355469 21.511719 13.238281 Z M 18.121094 15.792969 L 17.878906 16.070312 L 13.96875 13.597656 L 13.929688 13.597656 L 13.929688 12.199219 L 13.96875 12.199219 L 17.042969 13.4375 C 17.402344 13.558594 17.800781 13.558594 18.121094 13.355469 C 18.4375 13.199219 18.640625 12.917969 18.71875 12.597656 C 18.757812 12.519531 18.757812 12.480469 18.757812 12.398438 L 18.757812 12.199219 L 20.476562 13.316406 C 19.917969 13.957031 19.078125 14.792969 18.121094 15.792969 Z M 18.121094 15.792969"/>
</svg>

<svg xmlns="http://www.w3.org/2000/svg" width="32" height="32" viewBox="0 0 24 24">
    <path d="M22.352 3.336C20.836 1.62 19 .742 17.122.742c-2.114 0-4.032 1.278-5.15 3.395C10.896 2.02 8.978.742 6.903.742c-1.875 0-3.632.88-5.23 2.594-1.836 2.039-2.875 6.59.758 10.02 1.68 1.558 9.222 9.503 9.304 9.582l.278.32.32-.32c.078-.079 7.664-7.985 9.3-9.583 3.555-3.43 2.516-8.023.72-10.02zm-1.356 9.504c-1.48 1.394-7.625 7.824-9.023 9.3-1.399-1.519-7.504-7.906-9.024-9.343C-.28 9.723.637 5.69 2.273 3.895c1.434-1.555 2.993-2.356 4.63-2.356 1.995 0 3.831 1.438 4.71 3.715l.36.957.398-.957c.918-2.277 2.715-3.715 4.75-3.715 1.676 0 3.234.8 4.55 2.399 1.599 1.753 2.517 5.828-.675 8.902zm0 0"/>
    <path d="M11.973 7.129A2.776 2.776 0 0 0 9.18 9.926a2.775 2.775 0 0 0 2.793 2.793 2.778 2.778 0 0 0 2.793-2.793 2.778 2.778 0 0 0-2.793-2.797zm0 4.793a1.977 1.977 0 0 1-1.996-1.996c0-1.121.878-1.996 1.996-1.996 1.117 0 1.996.875 1.996 1.996a1.977 1.977 0 0 1-1.996 1.996zm0 0"/>
    <path d="M18.2 6.531a1.2 1.2 0 0 0-1.157-.12l-3.555 1.437c-.117.039-.238.16-.238.28 0 .118.04.278.121.36.399.399.598.88.598 1.438 0 .558-.2 1.078-.598 1.433-.121.082-.16.243-.121.36.04.12.121.242.238.281l3.555 1.438c.16.039.32.078.477.078.28 0 .52-.079.68-.2.359-.238.558-.636.558-1.035v-4.71c0-.442-.2-.801-.559-1.04zm-.24 5.79c0 .16-.081.277-.198.359a.481.481 0 0 1-.399.039l-3.035-1.239c.277-.476.438-1.039.438-1.554 0-.52-.16-1.078-.438-1.52l3.035-1.238a.468.468 0 0 1 .399.043c.117.078.199.2.199.36zm0 0M10.016 9.926c0-.559.199-1.078.597-1.438.121-.082.16-.242.121-.36-.039-.12-.12-.241-.238-.28L6.941 6.41a1.2 1.2 0 0 0-1.156.121 1.25 1.25 0 0 0-.558 1.04v4.71c0 .438.199.797.558 1.035.2.121.438.2.68.2.117 0 .277-.04.476-.079L10.496 12c.117-.04.2-.16.238-.281 0-.117-.039-.278-.12-.356a1.968 1.968 0 0 1-.598-1.437zM6.625 12.68a.489.489 0 0 1-.402-.04.432.432 0 0 1-.2-.359v-4.71c0-.16.082-.282.2-.36a.542.542 0 0 1 .242-.082c.039 0 .078.039.117.039l3.035 1.238a2.8 2.8 0 0 0-.437 1.52c0 .558.199 1.078.476 1.515zm0 0"/>
    <path d="M13.77 11.36c-.16-.04-.32-.04-.442.081-.758.68-1.953.68-2.672 0-.12-.12-.281-.16-.441-.082-.16.043-.238.204-.238.36v4.195c0 .156.12.316.277.399.121.039.32 0 .402-.122l1.317-1.316 1.316 1.316c.082.079.16.122.281.122.078 0 .117 0 .2-.043.16-.04.238-.2.238-.356V11.72c0-.156-.078-.317-.238-.36zm-.598 3.593l-.922-.918a.357.357 0 0 0-.277-.117.44.44 0 0 0-.282.117l-.918.918v-2.515c.762.359 1.637.359 2.399 0zm0 0M12.371 7.21L3.867 1.82c-.16-.078-.316-.078-.437 0-.64.399-1.239.918-1.797 1.516a6.583 6.583 0 0 0-1.2 2.078c-.078.2 0 .36.16.477l4.794 3.035c.039.039.117.082.199.082.078 0 .16 0 .2-.043.12-.078.198-.2.198-.36V7.57c0-.16.079-.28.2-.36a.468.468 0 0 1 .398-.042l3.555 1.437c.16.082.32.043.437-.078.36-.359.88-.558 1.399-.558h.16c.16 0 .36-.121.398-.282.078-.199 0-.398-.16-.476zm-2.117.56L6.94 6.45a1.21 1.21 0 0 0-1.156.12c-.36.239-.558.64-.558 1.04v.277L1.312 5.414a5.194 5.194 0 0 1 .918-1.52c.48-.515.918-.917 1.438-1.277l7.387 4.672a3.354 3.354 0 0 0-.801.48zm0 0"/>
    <path d="M21.512 13.238c-.04-.12-.117-.199-.2-.281l-2.753-1.754a.353.353 0 0 0-.399 0c-.12.078-.2.2-.2.36v.835a.618.618 0 0 1-.237.32c-.043.04-.203.122-.36.04l-2.996-1.195-.36-.282c-.16-.12-.398-.12-.519.04a2.993 2.993 0 0 1-.16.16c-.078.039-.117.16-.117.28v2.075c0 .121.078.238.2.32l4.35 2.754a.3.3 0 0 0 .2.078c.078 0 .2-.039.277-.078l.48-.48c1.157-1.196 2.157-2.196 2.716-2.871.078-.082.12-.204.078-.32zm-3.39 2.555l-.243.277-3.91-2.472h-.04v-1.399h.04l3.074 1.239c.36.12.758.12 1.078-.083a1.13 1.13 0 0 0 .598-.757c.039-.078.039-.118.039-.2V12.2l1.719 1.117c-.559.641-1.399 1.477-2.356 2.477zm0 0"/>
</svg>
